X: 1
T: Glen Ogle
P: for the 8x40R3 dance Haymaking
R: reel
B: RSCDS "Five Traditional Scottish Country Dances for 1965"
S: Athol Collection
Z: 2013 John Chambers <jc:trillian.mit.edu>
M: C|
L: 1/8
K: D
A |\
"D"d2fd "G"B2ed | "A7"cABc "D"dAFD | "D"d2fd "G"B2ed |
"A7"cABc "D"d2d :| e | "D"f2df "G"gfed | "A7"cABc "D"dAFD |
"Bm"f2df "Em"gfed | "A7"cABc "D"d2 de | "D"f2df "G"gfed |
"A7"cABc "D"dAFA | "D"Adfd "G"Bege | "A7"Agec "D"d2-d |]
